icons/solidity/solidity-original.svg

<svg viewBox="0 0 128 128" xmlns="http://www.w3.org/2000/svg"><path d="m84.466 6.595e-4 -20.579 36.576h-41.131l20.565-36.576z" opacity=".45" /><path d="m63.887 36.576h41.145l-20.564-36.576h-41.145z" opacity=".6" /><path d="m43.323 73.138 20.565-36.562-20.565-36.576-20.564 36.576z" opacity=".8" /><path d="m43.521 128 20.579-36.576h41.145l-20.579 36.576z" opacity=".45" /><path d="m64.1 91.426h-41.145l20.564 36.575h41.145z" opacity=".6" /><path d="m84.666 54.864-20.564 36.562 20.564 36.575 20.579-36.575z" opacity=".8" /></svg>

<svg viewBox="0 0 128 128" xmlns="http://www.w3.org/2000/svg"><path d="M84.466 0L63.887 36.578H22.756L43.321 0z" opacity=".45"/><path d="M63.887 36.576h41.145L84.468 0H43.323z" opacity=".6"/><path d="M43.323 73.138l20.565-36.562L43.323 0 22.759 36.576z" opacity=".8"/><path d="M43.521 128L64.1 91.424h41.145L84.666 128z" opacity=".45"/><path d="M64.1 91.426H22.955l20.564 36.575h41.145z" opacity=".6"/><path d="M84.666 54.864L64.102 91.426l20.564 36.575 20.579-36.575z" opacity=".8"/></svg>
